assets/images/devices/mobile.svg

<svg width="28" height="28" viewBox="0 0 28 28" fill="none" xmlns="http://www.w3.org/2000/svg">
<path fill-rule="evenodd" clip-rule="evenodd" d="M20.5625 4.375C20.5625 3.40812 19.7794 2.625 18.8125 2.625C16.3004 2.625 11.6996 2.625 9.1875 2.625C8.22062 2.625 7.4375 3.40812 7.4375 4.375V23.625C7.4375 24.5919 8.22062 25.375 9.1875 25.375H18.8125C19.7794 25.375 20.5625 24.5919 20.5625 23.625C20.5625 19.3874 20.5625 8.61262 20.5625 4.375Z" fill="#2DBBFF"/>
<path fill-rule="evenodd" clip-rule="evenodd" d="M13.0713 17.0866C12.9006 17.2572 12.6233 17.2572 12.4526 17.0866C12.282 16.916 12.282 16.6386 12.4526 16.468L16.1653 12.7554C16.3359 12.5847 16.6133 12.5847 16.7839 12.7554C16.9545 12.926 16.9545 13.2034 16.7839 13.374L13.0713 17.0866ZM12.2759 15.4075C12.1053 15.5781 11.8279 15.5781 11.6573 15.4075C11.4866 15.2369 11.4866 14.9595 11.6573 14.7889L14.4861 11.96C14.6568 11.7894 14.9333 11.7894 15.1048 11.96C15.2754 12.1306 15.2754 12.408 15.1048 12.5786L12.2759 15.4075Z" fill="#8EDAFF"/>
<path fill-rule="evenodd" clip-rule="evenodd" d="M12.25 4.8125C12.0085 4.8125 11.8125 4.6165 11.8125 4.375C11.8125 4.1335 12.0085 3.9375 12.25 3.9375H15.75C15.9915 3.9375 16.1875 4.1335 16.1875 4.375C16.1875 4.6165 15.9915 4.8125 15.75 4.8125H12.25Z" fill="#707070"/>
<path fill-rule="evenodd" clip-rule="evenodd" d="M7.4375 21.2634H15.8821C16.7965 21.2634 17.5376 20.5223 17.5376 19.6079V2.625H18.8125C19.7794 2.625 20.5625 3.40812 20.5625 4.375V23.625C20.5625 24.5919 19.7794 25.375 18.8125 25.375H9.1875C8.22062 25.375 7.4375 24.5919 7.4375 23.625V21.2634Z" fill="#0AB0FF"/>
<path fill-rule="evenodd" clip-rule="evenodd" d="M21 4.375V23.625C21 24.8334 20.0209 25.8125 18.8125 25.8125H9.1875C7.97912 25.8125 7 24.8334 7 23.625V4.375C7 3.16662 7.97912 2.1875 9.1875 2.1875H18.8125C20.0209 2.1875 21 3.16662 21 4.375ZM20.125 4.375C20.125 3.6505 19.537 3.0625 18.8125 3.0625H9.1875C8.463 3.0625 7.875 3.6505 7.875 4.375V23.625C7.875 24.3495 8.463 24.9375 9.1875 24.9375H18.8125C19.537 24.9375 20.125 24.3495 20.125 23.625V4.375Z" fill="#707070"/>
<path fill-rule="evenodd" clip-rule="evenodd" d="M17.5376 2.1875H18.8125C20.0209 2.1875 21 3.16662 21 4.375V23.625C21 24.8334 20.0209 25.8125 18.8125 25.8125H9.1875C7.97912 25.8125 7 24.8334 7 23.625V21.2634H7.875V23.625C7.875 24.3495 8.463 24.9375 9.1875 24.9375H18.8125C19.537 24.9375 20.125 24.3495 20.125 23.625V4.375C20.125 3.6505 19.537 3.0625 18.8125 3.0625H17.5376V2.1875Z" fill="#595959"/>
</svg>

<svg xmlns="http://www.w3.org/2000/svg" width="28" height="28" fill="none" fill-rule="evenodd" xmlns:v="https://vecta.io/nano"><path d="M20.563 4.375a1.75 1.75 0 0 0-1.75-1.75H9.188a1.75 1.75 0 0 0-1.75 1.75v19.25a1.75 1.75 0 0 0 1.75 1.75h9.625a1.75 1.75 0 0 0 1.75-1.75V4.375z" fill="#2dbbff"/><path d="M13.071 17.087a.44.44 0 0 1-.619 0 .44.44 0 0 1 0-.619l3.713-3.713c.171-.171.448-.171.619 0a.44.44 0 0 1 0 .619l-3.713 3.713zm-.795-1.679a.44.44 0 0 1-.619 0c-.171-.171-.171-.448 0-.619l2.829-2.829a.44.44 0 0 1 .619 0 .44.44 0 0 1 0 .619l-2.829 2.829z" fill="#8edaff"/><path d="M12.25 4.813c-.242 0-.437-.196-.437-.437s.196-.437.438-.437h3.5c.242 0 .438.196.438.438s-.196.438-.437.438h-3.5z" fill="#707070"/><path d="M7.438 21.263h8.445c.914 0 1.656-.741 1.656-1.655V2.625h1.275a1.75 1.75 0 0 1 1.75 1.75v19.25a1.75 1.75 0 0 1-1.75 1.75H9.188a1.75 1.75 0 0 1-1.75-1.75v-2.362z" fill="#0ab0ff"/><path d="M21 4.375v19.25a2.19 2.19 0 0 1-2.187 2.188H9.188A2.19 2.19 0 0 1 7 23.625V4.375a2.19 2.19 0 0 1 2.188-2.187h9.625A2.19 2.19 0 0 1 21 4.375zm-.875 0c0-.724-.588-1.312-1.312-1.312H9.188c-.725 0-1.312.588-1.312 1.313v19.25c0 .724.588 1.313 1.313 1.313h9.625c.724 0 1.313-.588 1.313-1.312V4.375z" fill="#707070"/><path d="M17.538 2.188h1.275A2.19 2.19 0 0 1 21 4.375v19.25a2.19 2.19 0 0 1-2.187 2.188H9.188A2.19 2.19 0 0 1 7 23.625v-2.362h.875v2.362c0 .724.588 1.313 1.313 1.313h9.625c.724 0 1.313-.588 1.313-1.312V4.375c0-.724-.588-1.312-1.312-1.312h-1.275v-.875z" fill="#595959"/></svg>
